X:1
T: Lord of the Dance
C:
R:Reel
Q: 232
K:C
M:4/4
L:1/8
|:G2|c2 c2 ed ef|g2 gg e2 e2|d2 dd d2 de|fe dc B2 G2|
c2 c2 ed ef|g2 gg e2 e2|d2 d2 e2 d2|c2 c2 c2 z2|
g4 e3d|ef ed c4|e2 ee g2 fe|d2 d2 d2 G2|
c2 c2 c3d|ed ef g2 ee|d2 d2 e2 dd|c2 c2 c2:|
